information-slab-circle-outline.svg

<svg  viewBox="0 0 24 24" fill="currentColor"><path  d="M11 7V9H13V7H11M14 17V15H13V11H10V13H11V15H10V17H14M22 12C22 17.5 17.5 22 12 22C6.5 22 2 17.5 2 12C2 6.5 6.5 2 12 2C17.5 2 22 6.5 22 12M20 12C20 7.58 16.42 4 12 4C7.58 4 4 7.58 4 12C4 16.42 7.58 20 12 20C16.42 20 20 16.42 20 12Z"/></svg>

<svg fill="currentColor" viewBox="0 0 24 24"><path d="M11 7v2h2V7zm3 10v-2h-1v-4h-3v2h1v2h-1v2zm8-5c0 5.5-4.5 10-10 10S2 17.5 2 12 6.5 2 12 2s10 4.5 10 10m-2 0c0-4.42-3.58-8-8-8s-8 3.58-8 8 3.58 8 8 8 8-3.58 8-8"/></svg>
